X: 11946
T: En Dro
R: polka
M: 2/4
K: Edorian
B/ ef|:"Em"g>f g/f/e/g/|"D"fe/f/ gf|"Em"e>g f/e/d/e/|"Bm"f>B ef:|
"G"g>g fe|"D"d>d ed/c/|"Em"Be/B/ "Bm"f/B/g/B/|"Em"e2 ed/c/|"Bm"B>e "D"fg/f/|"Em"e3/2||

